recalbox-backport/gx4000/data/game.svg

<svg xmlns="http://www.w3.org/2000/svg" viewBox="0 0 52.283 52.914"><linearGradient id="a" gradientUnits="userSpaceOnUse" y1="26.457" x2="52.283" y2="26.457"><stop offset="0" stop-color="#7a7572"/><stop offset=".009" stop-color="#948f8c"/><stop offset=".02" stop-color="#aaa5a1"/><stop offset=".032" stop-color="#bbb6b2"/><stop offset=".048" stop-color="#c6c1bd"/><stop offset=".07" stop-color="#cdc8c4"/><stop offset=".13" stop-color="#cfcac6"/><stop offset=".87" stop-color="#cfcac6"/><stop offset=".93" stop-color="#cdc8c4"/><stop offset=".952" stop-color="#c6c1bd"/><stop offset=".968" stop-color="#bbb6b2"/><stop offset=".98" stop-color="#aaa5a1"/><stop offset=".991" stop-color="#948f8c"/><stop offset="1" stop-color="#7a7572"/></linearGradient><path d="M26.142 0H1.491C.668 0 0 .668 0 1.491v1.091h1.244c.023 0 .043.019.043.043v.197a.043.043 0 0 1-.043.043H0v.388h1.244c.023 0 .043.019.043.043v.197a.043.043 0 0 1-.043.043H0v.388h1.244c.023 0 .043.019.043.043v.197a.043.043 0 0 1-.043.043H0v.388h1.244c.023 0 .043.019.043.043v.197a.043.043 0 0 1-.043.043H0v.388h1.244c.023 0 .043.019.043.043v.197a.043.043 0 0 1-.043.043H0v.388h1.244c.023 0 .043.019.043.043v.197a.043.043 0 0 1-.043.043H0v.388h1.244c.023 0 .043.019.043.043v.197a.043.043 0 0 1-.043.043H0v.388h1.244c.023 0 .043.019.043.043v.197a.043.043 0 0 1-.043.043H0v.388h1.244c.023 0 .043.019.043.043v.197a.043.043 0 0 1-.043.043H0v.388h1.244c.023 0 .043.019.043.043v.197a.043.043 0 0 1-.043.043H0v.388h1.244c.023 0 .043.019.043.043v.197a.043.043 0 0 1-.043.043H0v.388h1.244c.023 0 .043.019.043.043v.197a.043.043 0 0 1-.043.043H0v41.181a1.49 1.49 0 0 0 1.491 1.491h49.3a1.49 1.49 0 0 0 1.491-1.491V10.241h-1.244a.043.043 0 0 1-.043-.043v-.197c0-.023.019-.043.043-.043h1.244V9.57h-1.244a.043.043 0 0 1-.043-.043v-.196c0-.023.019-.043.043-.043h1.244V8.9h-1.244a.043.043 0 0 1-.043-.043V8.66c0-.023.019-.043.043-.043h1.244v-.388h-1.244a.043.043 0 0 1-.043-.043V7.99c0-.023.019-.043.043-.043h1.244v-.388h-1.244a.043.043 0 0 1-.043-.043v-.197c0-.023.019-.043.043-.043h1.244v-.388h-1.244a.043.043 0 0 1-.043-.043v-.197c0-.023.019-.043.043-.043h1.244v-.388h-1.244a.043.043 0 0 1-.043-.043v-.196c0-.023.019-.043.043-.043h1.244v-.388h-1.244a.043.043 0 0 1-.043-.043v-.197c0-.023.019-.043.043-.043h1.244v-.388h-1.244a.043.043 0 0 1-.043-.043v-.196c0-.023.019-.043.043-.043h1.244v-.388h-1.244a.043.043 0 0 1-.043-.043v-.197c0-.023.019-.043.043-.043h1.244v-.388h-1.244a.043.043 0 0 1-.043-.043v-.197c0-.023.019-.043.043-.043h1.244v-.388h-1.244a.043.043 0 0 1-.043-.043v-.196c0-.023.019-.043.043-.043h1.244V1.491A1.49 1.49 0 0 0 50.792 0h-24.65z" fill="url(#a)"/><path d="M42.509 30.5H9.775a1.283 1.283 0 0 1-1.283-1.283V0h35.301v29.217a1.285 1.285 0 0 1-1.284 1.283z" fill="#f0f1ec"/><linearGradient id="b" gradientUnits="userSpaceOnUse" x1="8.491" y1="3.708" x2="43.792" y2="3.708"><stop offset="0" stop-color="#e5b3b2"/><stop offset="1" stop-color="#c02520"/></linearGradient><path fill="url(#b)" d="M8.491 0h35.301v7.417H8.491z"/><path d="M43.752 45.354h-8.907c-.039 0-.055.051-.023.073l4.313 2.96a.29.29 0 0 0 .328 0l4.313-2.96c.031-.022.015-.073-.024-.073zM8.532 45.354h8.907c.039 0 .055.051.023.073l-4.313 2.96a.29.29 0 0 1-.328 0l-4.313-2.96c-.032-.022-.016-.073.024-.073z" fill="#4f4949"/><path d="M43.752 45.562h-8.907c-.039 0-.055.051-.023.073l4.313 2.96a.29.29 0 0 0 .328 0l4.313-2.96c.031-.022.015-.073-.024-.073zM8.532 45.562h8.907c.039 0 .055.051.023.073l-4.313 2.96a.29.29 0 0 1-.328 0l-4.313-2.96c-.032-.022-.016-.073.024-.073z" fill="#e5e0dc"/><path d="M43.752 45.458h-8.907c-.039 0-.055.051-.023.073l4.313 2.96a.29.29 0 0 0 .328 0l4.313-2.96c.031-.022.015-.073-.024-.073zM8.532 45.458h8.907c.039 0 .055.051.023.073l-4.313 2.96a.29.29 0 0 1-.328 0l-4.313-2.96c-.032-.022-.016-.073.024-.073z" fill="#c6c1bd"/></svg>

<?xml version="1.0" encoding="UTF-8" standalone="no"?>
<svg
   xmlns:dc="http://purl.org/dc/elements/1.1/"
   xmlns:cc="http://creativecommons.org/ns#"
   xmlns:rdf="http://www.w3.org/1999/02/22-rdf-syntax-ns#"
   xmlns:svg="http://www.w3.org/2000/svg"
   xmlns="http://www.w3.org/2000/svg"
   xmlns:sodipodi="http://sodipodi.sourceforge.net/DTD/sodipodi-0.dtd"
   xmlns:inkscape="http://www.inkscape.org/namespaces/inkscape"
   viewBox="0 0 52.282001 52.917998"
   version="1.1"
   id="svg48"
   sodipodi:docname="game.svg"
   width="52.282001"
   height="52.917999"
   inkscape:version="0.92.4 5da689c313, 2019-01-14">
  <metadata
     id="metadata54">
    <rdf:RDF>
      <cc:Work
         rdf:about="">
        <dc:format>image/svg+xml</dc:format>
        <dc:type
           rdf:resource="http://purl.org/dc/dcmitype/StillImage" />
      </cc:Work>
    </rdf:RDF>
  </metadata>
  <defs
     id="defs52" />
  <sodipodi:namedview
     pagecolor="#ffffff"
     bordercolor="#666666"
     borderopacity="1"
     objecttolerance="10"
     gridtolerance="10"
     guidetolerance="10"
     inkscape:pageopacity="0"
     inkscape:pageshadow="2"
     inkscape:window-width="640"
     inkscape:window-height="480"
     id="namedview50"
     showgrid="false"
     inkscape:zoom="4.4600672"
     inkscape:cx="26.141501"
     inkscape:cy="26.461"
     inkscape:window-x="0"
     inkscape:window-y="0"
     inkscape:window-maximized="0"
     inkscape:current-layer="svg48" />
  <linearGradient
     id="a"
     gradientUnits="userSpaceOnUse"
     y1="26.457001"
     x2="52.283001"
     y2="26.457001">
    <stop
       offset="0"
       stop-color="#7a7572"
       id="stop2" />
    <stop
       offset=".009"
       stop-color="#948f8c"
       id="stop4" />
    <stop
       offset=".02"
       stop-color="#aaa5a1"
       id="stop6" />
    <stop
       offset=".032"
       stop-color="#bbb6b2"
       id="stop8" />
    <stop
       offset=".048"
       stop-color="#c6c1bd"
       id="stop10" />
    <stop
       offset=".07"
       stop-color="#cdc8c4"
       id="stop12" />
    <stop
       offset=".13"
       stop-color="#cfcac6"
       id="stop14" />
    <stop
       offset=".87"
       stop-color="#cfcac6"
       id="stop16" />
    <stop
       offset=".93"
       stop-color="#cdc8c4"
       id="stop18" />
    <stop
       offset=".952"
       stop-color="#c6c1bd"
       id="stop20" />
    <stop
       offset=".968"
       stop-color="#bbb6b2"
       id="stop22" />
    <stop
       offset=".98"
       stop-color="#aaa5a1"
       id="stop24" />
    <stop
       offset=".991"
       stop-color="#948f8c"
       id="stop26" />
    <stop
       offset="1"
       stop-color="#7a7572"
       id="stop28" />
  </linearGradient>
  <path
     d="M 26.142,0 H 1.4910003 C 0.66800034,0 3.3579591e-7,0.668 3.3579591e-7,1.491 V 2.582 H 1.2440003 c 0.023,0 0.043,0.019 0.043,0.043 v 0.197 a 0.043,0.043 0 0 1 -0.043,0.043 H 3.3579591e-7 V 3.253 H 1.2440003 c 0.023,0 0.043,0.019 0.043,0.043 v 0.197 a 0.043,0.043 0 0 1 -0.043,0.043 H 3.3579591e-7 V 3.924 H 1.2440003 c 0.023,0 0.043,0.019 0.043,0.043 v 0.197 a 0.043,0.043 0 0 1 -0.043,0.043 H 3.3579591e-7 V 4.595 H 1.2440003 c 0.023,0 0.043,0.019 0.043,0.043 v 0.197 a 0.043,0.043 0 0 1 -0.043,0.043 H 3.3579591e-7 V 5.266 H 1.2440003 c 0.023,0 0.043,0.019 0.043,0.043 v 0.197 a 0.043,0.043 0 0 1 -0.043,0.043 H 3.3579591e-7 V 5.937 H 1.2440003 c 0.023,0 0.043,0.019 0.043,0.043 v 0.197 a 0.043,0.043 0 0 1 -0.043,0.043 H 3.3579591e-7 V 6.608 H 1.2440003 c 0.023,0 0.043,0.019 0.043,0.043 v 0.197 a 0.043,0.043 0 0 1 -0.043,0.043 H 3.3579591e-7 V 7.279 H 1.2440003 c 0.023,0 0.043,0.019 0.043,0.043 v 0.197 a 0.043,0.043 0 0 1 -0.043,0.043 H 3.3579591e-7 V 7.95 H 1.2440003 c 0.023,0 0.043,0.019 0.043,0.043 V 8.19 a 0.043,0.043 0 0 1 -0.043,0.043 H 3.3579591e-7 V 8.621 H 1.2440003 c 0.023,0 0.043,0.019 0.043,0.043 v 0.197 a 0.043,0.043 0 0 1 -0.043,0.043 H 3.3579591e-7 V 9.292 H 1.2440003 c 0.023,0 0.043,0.019 0.043,0.043 v 0.197 a 0.043,0.043 0 0 1 -0.043,0.043 H 3.3579591e-7 V 9.963 H 1.2440003 c 0.023,0 0.043,0.019 0.043,0.043 v 0.197 a 0.043,0.043 0 0 1 -0.043,0.043 H 3.3579591e-7 V 51.427 A 1.49,1.49 0 0 0 1.4910003,52.918 H 50.791 a 1.49,1.49 0 0 0 1.491,-1.491 V 10.241 h -1.244 a 0.043,0.043 0 0 1 -0.043,-0.043 v -0.197 c 0,-0.023 0.019,-0.043 0.043,-0.043 h 1.244 V 9.57 H 51.038 A 0.043,0.043 0 0 1 50.995,9.527 V 9.331 c 0,-0.023 0.019,-0.043 0.043,-0.043 h 1.244 V 8.9 H 51.038 A 0.043,0.043 0 0 1 50.995,8.857 V 8.66 c 0,-0.023 0.019,-0.043 0.043,-0.043 h 1.244 V 8.229 H 51.038 A 0.043,0.043 0 0 1 50.995,8.186 V 7.99 c 0,-0.023 0.019,-0.043 0.043,-0.043 h 1.244 V 7.559 H 51.038 A 0.043,0.043 0 0 1 50.995,7.516 V 7.319 c 0,-0.023 0.019,-0.043 0.043,-0.043 h 1.244 V 6.888 H 51.038 A 0.043,0.043 0 0 1 50.995,6.845 V 6.648 c 0,-0.023 0.019,-0.043 0.043,-0.043 h 1.244 V 6.217 H 51.038 A 0.043,0.043 0 0 1 50.995,6.174 V 5.978 c 0,-0.023 0.019,-0.043 0.043,-0.043 h 1.244 V 5.547 H 51.038 A 0.043,0.043 0 0 1 50.995,5.504 V 5.307 c 0,-0.023 0.019,-0.043 0.043,-0.043 h 1.244 V 4.876 H 51.038 A 0.043,0.043 0 0 1 50.995,4.833 V 4.637 c 0,-0.023 0.019,-0.043 0.043,-0.043 h 1.244 V 4.206 H 51.038 A 0.043,0.043 0 0 1 50.995,4.163 V 3.966 c 0,-0.023 0.019,-0.043 0.043,-0.043 h 1.244 V 3.535 H 51.038 A 0.043,0.043 0 0 1 50.995,3.492 V 3.295 c 0,-0.023 0.019,-0.043 0.043,-0.043 h 1.244 V 2.864 H 51.038 A 0.043,0.043 0 0 1 50.995,2.821 V 2.625 c 0,-0.023 0.019,-0.043 0.043,-0.043 h 1.244 V 1.491 A 1.49,1.49 0 0 0 50.792,0 Z"
     id="path31"
     inkscape:connector-curvature="0"
     style="fill:url(#a)" />
  <path
     d="M 42.509,30.5 H 9.7750003 a 1.283,1.283 0 0 1 -1.283,-1.283 V 0 H 43.793 V 29.217 A 1.285,1.285 0 0 1 42.509,30.5 Z"
     id="path33"
     inkscape:connector-curvature="0"
     style="fill:#f0f1ec" />
  <linearGradient
     id="b"
     gradientUnits="userSpaceOnUse"
     x1="8.4910002"
     y1="3.7079999"
     x2="43.792"
     y2="3.7079999">
    <stop
       offset="0"
       stop-color="#e5b3b2"
       id="stop35" />
    <stop
       offset="1"
       stop-color="#c02520"
       id="stop37" />
  </linearGradient>
  <path
     d="M 8.4910003,0 H 43.792 V 7.417 H 8.4910003 Z"
     id="path40"
     inkscape:connector-curvature="0"
     style="fill:url(#b)" />
  <path
     d="m 43.752,45.354 h -8.907 c -0.039,0 -0.055,0.051 -0.023,0.073 l 4.313,2.96 a 0.29,0.29 0 0 0 0.328,0 l 4.313,-2.96 c 0.031,-0.022 0.015,-0.073 -0.024,-0.073 z m -35.2199997,0 H 17.439 c 0.039,0 0.055,0.051 0.023,0.073 l -4.313,2.96 a 0.29,0.29 0 0 1 -0.328,0 l -4.3129997,-2.96 c -0.032,-0.022 -0.016,-0.073 0.024,-0.073 z"
     id="path42"
     inkscape:connector-curvature="0"
     style="fill:#4f4949" />
  <path
     d="m 43.752,45.562 h -8.907 c -0.039,0 -0.055,0.051 -0.023,0.073 l 4.313,2.96 a 0.29,0.29 0 0 0 0.328,0 l 4.313,-2.96 c 0.031,-0.022 0.015,-0.073 -0.024,-0.073 z m -35.2199997,0 H 17.439 c 0.039,0 0.055,0.051 0.023,0.073 l -4.313,2.96 a 0.29,0.29 0 0 1 -0.328,0 l -4.3129997,-2.96 c -0.032,-0.022 -0.016,-0.073 0.024,-0.073 z"
     id="path44"
     inkscape:connector-curvature="0"
     style="fill:#e5e0dc" />
  <path
     d="m 43.752,45.458 h -8.907 c -0.039,0 -0.055,0.051 -0.023,0.073 l 4.313,2.96 a 0.29,0.29 0 0 0 0.328,0 l 4.313,-2.96 c 0.031,-0.022 0.015,-0.073 -0.024,-0.073 z m -35.2199997,0 H 17.439 c 0.039,0 0.055,0.051 0.023,0.073 l -4.313,2.96 a 0.29,0.29 0 0 1 -0.328,0 l -4.3129997,-2.96 c -0.032,-0.022 -0.016,-0.073 0.024,-0.073 z"
     id="path46"
     inkscape:connector-curvature="0"
     style="fill:#c6c1bd" />
</svg>
